X:1
T:sss
T:When Messiah Comes - SATB
%%score { 1 ( 2 3 ) 4 5 }
L:1/8
M:4/4
K:F
V:1 treble nm="Piano" snm="Pno."
V:2 treble nm="Piano" snm="Pno."
V:3 treble 
V:4 bass nm="Piano" snm="Pno."
V:5 bass nm="Piano" snm="Pno."
V:1
 z8[Q:1/4=94] | z8 | z8 | z8 | z8 | z8 | z8 | z8 | z8 | z8 | z8 | z8 | z8 | z8 | z8 | z8 | z8 | %17
w: |||||||||||||||||
 z8 | z8 | z8 | z8 | z8 | z8 | z8 | z8 | z8 | z8 | z8 |[K:G] z8 | z8 | z8 | z8 | z8 | z8 | z8 | %35
w: ||||||||||||||||||
 z8 | z8 | z8 | z8 | z8 | z8 | z8 | z8 | z8 | z8 | z8 | z8 |: z8 | z8 | z8 |1 z8 :|2 z8 || %52
w: |||||||||||||||||
[K:Ab] z2 A2 G2 F2 | z2 d2 c2 B2 | z2 d2 c2 B2 | z2 d2 c2 B2 | z8 | z8 | z8 | z8 | z8 | z8 | z8 | %63
w: Come to us|Mes- si- ah|we're pray- ing|we're wait- ing||||||||
 z8 | z8 | z8 | z8 | z8 | z8 | z8 | z2 F4 B2 | B4 (c4 | c4) z !>!c!>!c!>!=e | f8- | f8 | %75
w: |||||||When Mes-|si- ah|* Mes- si- ah|comes||
 z !>!f2 !>!e !>!e!>!f!>!f z |] %76
w: When Mes- si- ah- comes|
V:2
 z A/A/ AG/F/ GF/D/ DD/C/ | CD (D/C/A,) z4 | z B/B/ BA/A/ AGGF | FG G/F/D z4 | %4
w: Theres a cry go- ing up from the heart of je-|ru- sal- lem * *|"Where's the King that the pro- phets said would|rule our land * *|
 z B/B/ BA/A/ AG/G/ GF | FG G2 z4 | z8 | z BBB BA A2- | A6 z2 | z A/A/ AG/F/ GF/D/ DD/C/ | %10
w: break the yoke of our bur- den and give us|peace a- gain||oh how we long for him||Moth- ers pray with their child- ren at night that it|
 CD D4 z2 | z B/B/ BA/A/ AG GF/F/ | F[DG]/[DG]/ [DG]4 z2 | z BBA AG/G/ GF/F/ | %14
w: will be soon|Shep- herds pray as they watch their flocks by the|light of the moon|Old men have vis- ions and dreams of a|
 [DF][_EG]/[EG]/ [EG]4 z2 | z8 | z BBB BA A2- | A8 | z4 z [FA]2 [EG] | %19
w: King of the Jews||Oh if we on- ly knew.||When Mes-|
 [EG][DF] [DF]2 z [GB]2 [FA] | [DA][DG] [DG]2 z2 AB | ABAB AGFG | A4 z [FA]2 [EG] | %23
w: si- ah comes, when Mes-|si- ah comes He'll bring|peace to ev- 'ry na- tion- when- he|comes He's the|
 [EG][DF] [DF]2 z [GB]2 [FA] | [DA][DG] [DG]2 z2 AB | ABAB AGFG | A4 z G/A/ (G/F/)((D/C/)) | D8 | %28
w: prom- ised one He is|God's own Son we'll have|cause for cel- e- bra- tion when he|comes When Mes- si- * ah *|comes|
[K:G] z8 | z B/B/ BA/G/ AG/E/ ED | DE E4 z2 | z c/c/ cB/B/ BAAG | [DG][EA] [EA]4 z2 | %33
w: |For so long we have bowed un- der Ro- man|ty- ran- ny|where's the One who will change the course of|his- to- ry|
 z c/c/ cB/B/ BA/A/ AG | [EG][=FA] [FA]4 z2 | z8 | z ccc cB B2- | B4 z [GB]2 [FA] | %38
w: who will rise up and con- quer our dread- ed|en- e- my||And we will all be free|* When Mes-|
 [FA][EG] [EG]2 z [Ac]2 [GB] | [EB][EA] [EA]2 z2 Bc | BcBc BAGA | B4 z [GB]2 [FA] | %42
w: si- ah comes when Mes-|si- ah comes He'll bring|peace to ev- 'ry na- tion when he|comes He's the|
 [FA][EG] [EG]2 z [Ac]2 [GB] | [EB][EA] [EA]2 z2 Bc | BcBc BAGA | B4 z A/B/ (A/G/)((E/D/)) | %46
w: prom- ised One He is|God's own Son We'll have|cause for cel- e- bra- tion when He|comes. When Mes- si- * ah *|
 E6 z2 |: z2 G2 F2 E2 | z2 c2 B2 A2 | z2 [Ec]2 [EB]2 [CA]2 |1 z2 [Ec]2 [EB]2 [FA]2 :|2 %51
w: comes|Come to us|Mes- si- ah|we're pray- ing|we're wait- ing|
 z2 [Ec]2 [^DB]2 [DA]2 ||[K:Ab] z4 z F/G/ A(B/c/) | d2 z2 z D/E/ F(G/A/) | B2 z2 z B,/C/ D(E/F/) | %55
w: We're wait- ing|Come to Is- ra- *|el all our fears dis- *|pel Em- man- * * u-|
 G2 FF =E2 E2 | z2 [Fd][Fd] [=Ec]2 [EB]2 | z [GBf][GBf][GBf] [B=e]2 [Ge]2- | [Ge]4 z [Ac]2 [GB] | %59
w: el We are wait- ing|Come Mes- si- ah|for we are wait- ing||
 [GB][FA] [FA]2 z [Bd]2 [Ac] | [Ac][FB] [FB]2 z2 cd | cdcd cBAB | c4 z [Ac]2 [GB] | %63
w: si- ah comes, when Mes-|si- ah comes He'll Bring|peace to ev- 'ry na- tion when he|comes He's the|
 [GB][FA] [FA]2 z [Bd]2 [Ac] | [Fc][FB] [FB]2 z2 cd | cdcd cBAB | c4 z4 | z8 | %68
w: Prom- ised one He is|God's own son We'll have|cause for cel- e- bra- tion when he|comes||
 z4 z B/c/ (B/A/)((F/E/)) | F8 | z2 F4 B2 | B4 (c4 | c4) z !>!c!>!c!>!B | (A4 B4-) | (B2 c6) | %75
w: When Mes- si- * ah *||When Mes-|si- ah|* Mes- si- ah|comes *||
 z !>!A2 !>!G !>!G!>!F!>!F z |] %76
w: When Mes- si- ah- comes|
V:3
 x8 | x8 | x8 | x8 | x8 | x8 | x8 | x8 | x8 | x8 | x8 | x8 | x8 | x8 | x8 | x8 | x8 | x8 | x8 | %19
 x8 | x8 | x8 | x8 | x8 | x8 | x8 | x8 | x8 |[K:G] x8 | x8 | x8 | x8 | x8 | x8 | x8 | x8 | x8 | %37
 x8 | x8 | x8 | x8 | x8 | x8 | x8 | x8 | x8 | x8 |: x8 | x8 | x8 |1 x8 :|2 x8 ||[K:Ab] x8 | x8 | %54
 x8 | x8 | x8 | x4 GA x2 | x8 | x8 | x8 | x8 | x8 | x8 | x8 | x8 | x8 | x8 | x8 | x8 | x8 | x8 | %72
 x8 | x8 | x8 | x8 |] %76
V:4
 z A,/A,/ A,G,/F,/ G,F,/D,/ D,D,/C,/ | C,D, (D,/C,/A,,) z4 | z B,/B,/ B,A,/A,/ A,G,G,F, | %3
w: Theres a cry go- ing up from the heart of je-|ru- sal- lem * *|"Where's the King that the pro- phets said would|
 F,G, G,/F,/D, z4 | z B,/B,/ B,A,/A,/ A,G,/G,/ G,F, | F,G, G,2 z4 | z B,B,A, A,G, G,2 | %7
w: rule our land * *|break the yoke of our bur- den and give us|peace a- gain|Each day we look for him|
 z B,B,B, B,A, A,2- | A,6 z2 | z A,/A,/ A,G,/F,/ G,A,/G,/ [F,A,][F,A,]/[E,G,]/ | %10
w: oh how we long for him||Moth- ers pray with their child- ren at night that it|
 [E,G,][F,A,] [F,A,]4 z2 | z B,/B,/ B,A,/A,/ A,B, B,A,/A,/ | A,B,/B,/ B,4 z2 | %13
w: will be soon|Shep- herds pray as they watch their flocks by the|light of the moon|
 z B,B,A, A,G,/G,/ G,A,/A,/ | A,B,/B,/ B,4 z2 | z B,B,A, A,G, G,2 | z8 | z8 | z4 z [A,^C]2 [A,C] | %19
w: Old men have vis- ions and dreams of a|King of the Jews|When will He come to rule|||When Mes-|
 [D,A,][D,A,] [D,A,]2 z [D,D]2 [D,D] | [G,,B,][G,,B,] [G,,B,]2 z2 A,B, | A,B,A,B, A,G,F,G, | %22
w: si- ah comes, when Mes-|si- ah comes He'll bring|peace to ev- 'ry na- tion- when- he|
 A,4 z [A,^C]2 [A,C] | [D,A,][D,A,] [D,A,]2 z [D,D]2 [D,D] | [G,,B,][G,,B,] [G,,B,]2 z2 A,B, | %25
w: comes He's the|prom- ised one He is|God's own Son we'll have|
 A,B,A,B, A,G,F,G, | A,4 z4 | z8 |[K:G] z8 | z B,/B,/ B,A,/G,/ A,[G,B,]/[G,B,]/ [G,B,][F,A,] | %30
w: cause for cel- e- bra- tion when he|comes|||For so long we have bowed un- der Ro- man|
 [F,A,][G,B,] [G,B,]4 z2 | z C/C/ CB,/B,/ B,CCB, | B,C C4 z2 | z C/C/ CB,/B,/ B,A,/A,/ A,B, | %34
w: ty- ran- ny|where's the One who will change the course of|his- to- ry|who will rise up and con- quer our dread- ed|
 B,C C4 z2 | z CCB, B,A, A,2 | z8 | z4 z [B,,^D]2 [B,,D] | [E,B,][E,B,] [E,B,]2 z [E,E]2 [E,E] | %39
w: en- e- my|He'll change our des- ti- ny||When Mes-|si- ah comes when Mes-|
 [A,,C][A,,C] [A,,C]2 z2 B,C | B,CB,C B,A,G,A, | B,4 z [B,,^D]2 [^D,B,] | %42
w: si- ah comes He'll bring|peace to ev- 'ry na- tion when he|comes He's the|
 [E,B,][E,B,] [E,B,]2 z [E,E]2 [E,E] | [A,,C][A,,C] [A,,C]2 z2 B,C | B,CB,C B,A,G,A, | B,4 z4 | %46
w: prom- ised One He is|God's own Son We'll have|cause for cel- e- bra- tion when He|comes.|
 z8 |: E,6 E,2 | A,4 z2 A,2 | F,4 z2 F,2 |1 B,6 B,2 :|2 (B,4- B,)A,(G,F,) ||[K:Ab] F,CCC z C C2 | %53
w: |Come Lord|come oh|come we're|wait- ing|wait- * * * ing|Come and heal us we pray|
 z D/D/ DD z D D2 | z D/D/ DD z D D2 | z B,B,B, B,2 G,2 | z2 [B,,B,][B,,B,] [C,B,]2 [C,G,]2 | %57
w: come re- lieve us to day|in Ju- de- a we say|for we are wait- ing|come Mes- si- ah|
 z [C,D][C,D][C,D] [C,C]2 [C,B,]2- | [C,B,]4 z [A,C]2 [G,B,] | %59
w: for we are wait- ing|* When Mes-|
 [G,B,][F,A,] [F,A,]2 z [B,D]2 [A,C] | [CE][B,D] [B,D]2 z2 CD | CDCD CB,A,B, | C4 z [A,C]2 [G,B,] | %63
w: si- ah comes, when Mes-|si- ah comes He'll Bring|peace to ev- 'ry na- tion when he|comes He's the|
 [G,B,][F,C] [F,C]2 z [F,F]2 [F,F] | [B,,D][B,,D] [B,,D]2 z2 CD | CDCD CB,A,B, | %66
w: Prom- ised one He is|God's own son we'll have|cause for cel- e- bra- tion when he|
 C4 z B,/C/ (B,/A,/)((F,/E,/)) | F,4 z4 | z8 | z8 | z2 F,4 B,2 | B,4 C4- | C4 z !>!C!>!C!>!C | %73
w: comes When Mes- si- * ah *|comes|||When Mes-|si- ah|* Mes- si- ah|
 (C4 D4-) | (D2 E6) | z !>!C2 !>!B, !>!B,!>!A,!>!A, z |] %76
w: comes *||When Mes- si- ah- comes|
V:5
 z8 | z8 | z8 | z8 | z8 | z8 | z8 | z8 | z8 | z8 | z8 | z8 | z8 | z8 | z8 | z8 | z8 | z8 | z8 | %19
w: |||||||||||||||||||
 z8 | z8 | z8 | z8 | z8 | z8 | z8 | z8 | z8 |[K:G] z8 | z8 | z8 | z8 | z8 | z8 | z8 | z8 | z8 | %37
w: ||||||||||||||||||
 z8 | z8 | z8 | z8 | z8 | z8 | z8 | z8 | z8 | z8 |: z8 | z8 | z8 |1 z8 :|2 z8 ||[K:Ab] F,6 F,2 | %53
w: |||||||||||||||Come Lord|
 B,4 z2 B,2 | G,4 z2 G,2 | C,6 C,2 | z8 | z8 | z8 | z8 | z8 | z8 | z8 | z8 | z8 | z8 | z8 | z8 | %68
w: Come oh|come we're|wait- ing|||||||||||||
 z8 | z8 | z2 F,4 B,2 | B,4 C4- | C4 z !>!C!>!C!>!C | F,8- | F,8 | %75
w: ||When Mes-|si- ah|* Mes- si- ah|comes||
 z !>!F,2 !>!C, !>!C,!>!F,!>!F, z |] %76
w: When Mes- si- ah- comes|

